packages/match-logos/mono/svg/deliveroo.svg

<svg fill="none" height="35" viewBox="0 0 129 35" width="129" xmlns="http://www.w3.org/2000/svg"><path clip-rule="evenodd" d="m81.108 14.7925h3.0636l-2.9372 10.9258h-4.5202l-2.9372-10.9258h3.0226l2.1545 8.8508zm-8.4728-3.2839c0 1.0167-.7612 1.7792-1.7531 1.7792h.0007c-1.0147 0-1.7759-.7619-1.7759-1.7785 0-1.016.7612-1.77852 1.7759-1.77852.9919 0 1.7524.76182 1.7524 1.77782zm-3.1679 14.2097h2.8082v-10.9258h-2.8082zm53.8057-2.7104c-1.626 0-2.831-1.0799-2.831-2.7528 0-1.6938 1.205-2.7521 2.831-2.7521 1.647 0 2.83 1.0583 2.83 2.7521 0 1.6729-1.183 2.7528-2.83 2.7528zm.001-8.448c-3.192 0-5.557 2.3076-5.557 5.6952 0 3.3882 2.366 5.6958 5.556 5.6958s5.556-2.3076 5.556-5.6958c0-3.3876-2.366-5.6952-5.555-5.6952zm-59.1304-4.61667h2.8088v15.77507h-2.8088v-.0007zm23.5765 9.31607c.3174-1.2493 1.2676-1.9264 2.7039-1.9264 1.4579 0 2.4087.6771 2.7039 1.9264zm2.7026-4.7001c-3.1679 0-5.4919 2.2855-5.4919 5.6952 0 3.4723 2.3032 5.6952 5.8732 5.6952v.0013c1.5627-.0006 3.1053-.4236 4.3944-1.2493l-1.0779-2.4152c-1.0147.5305-2.1343.8472-3.2755.8472-1.4774 0-2.5129-.5709-2.9567-1.6305h7.9012c.0847-.4021.1264-.8042.1264-1.291 0-3.3876-2.3455-5.6529-5.4932-5.6529zm15.0843.5305-1.331 2.9841c-.486-.3388-1.015-.4848-1.584-.4848l-.001-.0007h-.001v-.0013c-.929 0-1.648.4438-2.028 1.1646v6.9654h-2.8083v-8.7869l-.4653-2.1382h2.8946l.297 1.377c.675-1.0603 1.731-1.6299 2.998-1.6299.698 0 1.415.1682 2.029.5507zm5.324 7.9182h-.002c-1.625 0-2.83-1.0799-2.83-2.7528 0-1.6938 1.205-2.7521 2.83-2.7521 1.649 0 2.832 1.0583 2.832 2.7521 0 1.6729-1.183 2.7528-2.83 2.7528zm-.002-8.448c-3.19 0-5.555 2.3076-5.555 5.6952 0 3.3882 2.365 5.6958 5.555 5.6958h.001c3.19 0 5.555-2.3076 5.555-5.6958 0-3.3876-2.366-5.6952-5.556-5.6952zm-56.719 4.6994c.3174-1.2493 1.2676-1.9264 2.7033-1.9264 1.4578 0 2.4086.6771 2.7045 1.9264zm2.7541-4.7301c-3.1686 0-5.4919 2.2869-5.4919 5.6953 0 3.4729 2.3025 5.6958 5.8731 5.6958h-.0013-.0013c1.5648 0 3.1067-.4236 4.3951-1.2493l-1.0766-2.4132c-1.0147.5291-2.1343.8465-3.2748.8465-1.4774 0-2.513-.5715-2.9574-1.6305h7.9005c.0848-.4015.1278-.8042.1278-1.2911 0-3.3875-2.3455-5.6535-5.4932-5.6535zm-34.8236 8.1359h-.002-.0006c-.3265.5617-1.1848.636-2.0281.2274-.5689-.2757-.565-.9769-.5025-1.4044.0333-.2333.1278-.4529.2751-.6387.2033-.2535.5422-.5852.9345-.5963.6374-.0169 1.1854.2659 1.4956.7775.3109.5096.1558 1.0727-.172 1.6345zm-6.3163-.7032h-.0013v.0006l.0007.0007c-.4504.4073-1.0447.3702-1.6749.1623-.6302-.2066-.9098-.9606-.6719-1.8711.1779-.6764 1.0147-.7775 1.4337-.784.1584-.0032.3148.0287.4595.0932.2959.1323.797.4152.8987.8466.146.6217.0052 1.1444-.4445 1.5517zm5.282-6.822-2.7443-12.76421-8.60175 1.80912 2.74235 12.76289-12.4025 2.6075 2.19036 10.1945 21.81044 4.5834 4.9881-11.0776 2.3742-22.344831-8.7485-.91042486zm22.878 7.868c-1.6267 0-2.831-1.0799-2.831-2.7528 0-1.6938 1.2037-2.7521 2.8303-2.7521 1.6488 0 2.8304 1.0583 2.8304 2.7521 0 1.6729-1.1816 2.7528-2.8297 2.7528zm5.6196.4444v-13.50776h-2.8088v6.16186c-.8466-.9743-2.0086-1.5452-3.3804-1.5452-2.8108 0-4.9862 2.307-4.9862 5.6952 0 3.3875 2.1754 5.6952 4.9855 5.6952 1.3947 0 2.599-.5924 3.4449-1.6091l.2946 1.3758h2.9366z" fill="#1f304c" fill-rule="evenodd"/></svg>

<svg width="129" height="35" viewBox="0 0 129 35" fill="none" xmlns="http://www.w3.org/2000/svg">
<mask id="mask0" mask-type="alpha" maskUnits="userSpaceOnUse" x="0" y="0" width="129" height="35">
<path d="M0 0.000244141H128.829V34.3331H0V0.000244141Z" fill="white"/>
</mask>
<g mask="url(#mask0)">
<path fill-rule="evenodd" clip-rule="evenodd" d="M81.108 14.7925H84.1716L81.2344 25.7183H76.7142L73.777 14.7925H76.7996L78.9541 23.6433L81.108 14.7925ZM72.6352 11.5086C72.6352 12.5253 71.874 13.2878 70.8821 13.2878H70.8828C69.8681 13.2878 69.1069 12.5259 69.1069 11.5093C69.1069 10.4933 69.8681 9.73078 70.8828 9.73078C71.8747 9.73078 72.6352 10.4926 72.6352 11.5086ZM69.4673 25.7183H72.2755V14.7925H69.4673V25.7183ZM123.273 23.0079C121.647 23.0079 120.442 21.928 120.442 20.2551C120.442 18.5613 121.647 17.503 123.273 17.503C124.92 17.503 126.103 18.5613 126.103 20.2551C126.103 21.928 124.92 23.0079 123.273 23.0079ZM123.274 14.5599C120.082 14.5599 117.717 16.8675 117.717 20.2551C117.717 23.6433 120.083 25.9509 123.273 25.9509C126.463 25.9509 128.829 23.6433 128.829 20.2551H128.829C128.829 16.8675 126.463 14.5599 123.274 14.5599ZM64.1436 9.94323H66.9524V25.7183H64.1436V25.7176V9.94323ZM87.7201 19.2593C88.0375 18.01 88.9877 17.3329 90.424 17.3329C91.8819 17.3329 92.8327 18.01 93.1279 19.2593H87.7201ZM90.4227 14.5592C87.2548 14.5592 84.9308 16.8447 84.9308 20.2544C84.9308 23.7267 87.234 25.9496 90.804 25.9496V25.9509C92.3667 25.9503 93.9093 25.5273 95.1984 24.7016L94.1205 22.2864C93.1058 22.8169 91.9862 23.1336 90.845 23.1336C89.3676 23.1336 88.3321 22.5627 87.8883 21.5031H95.7895C95.8742 21.101 95.9159 20.6989 95.9159 20.2121C95.9159 16.8245 93.5704 14.5592 90.4227 14.5592ZM105.507 15.0897L104.176 18.0738C103.69 17.735 103.161 17.589 102.592 17.589L102.591 17.5883H102.59V17.587C101.661 17.587 100.942 18.0308 100.562 18.7516V25.717H97.7537V16.9301L97.2884 14.7919H100.183L100.48 16.1689C101.155 15.1086 102.211 14.539 103.478 14.539C104.176 14.539 104.893 14.7072 105.507 15.0897ZM110.831 23.0079H110.829C109.204 23.0079 107.999 21.928 107.999 20.2551C107.999 18.5613 109.204 17.503 110.829 17.503C112.478 17.503 113.661 18.5613 113.661 20.2551C113.661 21.928 112.478 23.0079 110.831 23.0079ZM110.829 14.5599C107.639 14.5599 105.274 16.8675 105.274 20.2551C105.274 23.6433 107.639 25.9509 110.829 25.9509H110.829H110.83C114.02 25.9509 116.385 23.6433 116.385 20.2551C116.385 16.8675 114.019 14.5599 110.829 14.5599ZM54.11 19.2593C54.4274 18.01 55.3776 17.3329 56.8133 17.3329C58.2711 17.3329 59.2219 18.01 59.5178 19.2593H54.11ZM56.8641 14.5292C53.6955 14.5292 51.3722 16.8161 51.3722 20.2245C51.3722 23.6974 53.6747 25.9203 57.2453 25.9203H57.244H57.2427C58.8075 25.9203 60.3494 25.4967 61.6378 24.671L60.5612 22.2578C59.5465 22.7869 58.4269 23.1043 57.2864 23.1043C55.809 23.1043 54.7734 22.5328 54.329 21.4738H62.2295C62.3143 21.0723 62.3573 20.6696 62.3573 20.1827C62.3573 16.7952 60.0118 14.5292 56.8641 14.5292ZM22.0405 22.6651H22.0385H22.0379C21.7114 23.2268 20.8531 23.3011 20.0098 22.8925C19.4409 22.6168 19.4448 21.9156 19.5073 21.4881C19.5406 21.2548 19.6351 21.0352 19.7824 20.8494C19.9857 20.5959 20.3246 20.2642 20.7169 20.2531C21.3543 20.2362 21.9023 20.519 22.2125 21.0306C22.5234 21.5402 22.3683 22.1033 22.0405 22.6651ZM15.7242 21.9619H15.7229V21.9625L15.7236 21.9632C15.2732 22.3705 14.6789 22.3334 14.0487 22.1255C13.4185 21.9189 13.1389 21.1649 13.3768 20.2544C13.5547 19.578 14.3915 19.4769 14.8105 19.4704C14.9689 19.4672 15.1253 19.4991 15.27 19.5636C15.5659 19.6959 16.067 19.9788 16.1687 20.4102C16.3147 21.0319 16.1739 21.5546 15.7242 21.9619ZM21.0062 15.1399L18.2619 2.37569L9.66015 4.18481L12.4025 16.9477L0 19.5552L2.19036 29.7497L24.0008 34.3331L28.9889 23.2555L31.3631 0.910669L22.6146 0.000244141L21.0062 15.1399ZM43.8842 23.0079C42.2575 23.0079 41.0532 21.928 41.0532 20.2551C41.0532 18.5613 42.2569 17.503 43.8835 17.503C45.5323 17.503 46.7139 18.5613 46.7139 20.2551C46.7139 21.928 45.5323 23.0079 43.8842 23.0079ZM49.5038 23.4523V9.94454H46.695V16.1064C45.8484 15.1321 44.6864 14.5612 43.3146 14.5612C40.5038 14.5612 38.3284 16.8682 38.3284 20.2564C38.3284 23.6439 40.5038 25.9516 43.3139 25.9516C44.7086 25.9516 45.9129 25.3592 46.7588 24.3425L47.0534 25.7183H49.99L49.5038 23.4523Z" fill="#1F304C"/>
</g>
</svg>
